X:1
T:60 Lessons for 2 Guitars, Op.168 - Joseph Küffner (1776 - 1856)
T:Leçon No.48
T:60 Lessons for 2 Guitars, Op.168 "à l'usage des commençants"
T:Joseph Küffner (1776 - 1856)
%%score { ( 1 2 ) ( 3 4 ) }
L:1/8
Q:1/4=120
M:3/4
K:A
V:1 treble-8 nm="Classical Guitar"
V:2 treble-8 
V:3 treble-8 nm="Guitare classique"
V:4 treble-8 
V:1
"^Ländler""_" e2 | (3(efe) .c.d e2 | (3(efe) .c.d e2 | d2 (Bc).d.B | c2 A2 e2 | (3(efe) .c.d e2 | %6
 (3(efe) .c.d e2 | d2 (Bc).d.B | [A,A]2 z2 ::"_" (BA) | GBeGBe | (gf) !>!f4 | ABfABf | %13
 (fe) !>!e4 | GBeGBe | (gf) !>!f4 | ABfABf | !arpeggio![E,GBe]2 z2"_" e2 | (3(efe) .c.d e2 | %19
 (3(efe) .c.d e2 | d2 (Bc).d.B | c2 A2 e2 | (3(efe) .c.d e2 | (3(efe) .c.d e2 | d2 (Bc).d.B | %25
 [A,A]2 z2 :| %26
V:2
 x2 | x6 | x6 | x6 | x6 | x6 | x6 | x6 | x4 :: x2 | E,4 z2 | A,4 z2 | B,4 z2 | E,4 z2 | E,4 z2 | %15
 A,4 z2 | B,4 z2 | x6 | x6 | x6 | x6 | x6 | x6 | x6 | x6 | x4 :| %26
V:3
"_" c2 | (3(cdc) .A.B c2 | (3(cdc) .A.B c2 | z2 [EGd]2 [EGd]2 | z2 [EAc]2 [EAc]2 | %5
 (3(cdc) .A.B c2 | (3(cdc) .A.B c2 | z2 [EGd]2 [EGd]2 | A,2 [EAc]2 :: z2 | %10
"_" [E,EGB]2 z2 [E,EGB]2 | [A,FAc] z !>![A,FAc]4 | [B,^DAB]2 z2 [B,DAB]2 | [E,EGB] z !>![E,EGB]4 | %14
 [E,EGB]2 z2 [E,EGB]2 | [A,FAc] z !>![A,FAc]4 | [B,^DAB]2 z2 [B,DAB]2 | %17
 [EGB]2!>(! [Ac]2 [Bd]2!>)! | (3(cdc) .A.B c2 | (3(cdc) .A.B c2 | z2 [EGd]2 [EGd]2 | %21
 z2 [EAc]2 [EAc]2 | (3(cdc) .A.B c2 | (3(cdc) .A.B c2 | z2 [EGd]2 [EGd]2 | A,2 [EAc]2 :| %26
V:4
 x2 | A,6 | A,6 | E,6 | A,6 | A,6 | A,6 | E,6 | x4 :: x2 | x6 | x6 | x6 | x6 | x6 | x6 | x6 | E,6 | %18
 A,6 | A,6 | E,6 | A,6 | A,6 | A,6 | E,6 | x4 :| %26

